X: 03090
T: WOODLAND DREAM
C: Bob McQuillen 16 Oct 77
B: Bob's Note Book 3 #90
R: waltz
Z: 2005 John Chambers <jc:trillian.mit.edu>
M: 3/4
L: 1/8
K: D
A,2 \
| D4 F2 | ED- D4 | FA- A4 | d4 B2 | AF- F4 | E4 D2 | E6- | E4 A,2 |
| D4 F2 | ED- D4 | FA- A4 | d4 B2 | AF- F4 | E4 F2 | D6- | D4 :|
|: A2 \
| B4 c2 | BA- A4 | Bd- d4 | F4 E2 | DF- F4 | ED- D4 | B,6- | B,4 A,2 |
| D4 F2 | ED- D4 | F4  A2 | B4 d2 | DF- F4 | E4  D2 | D6-  | D4 :|
%%begintext align
%% This tune was unusual - it came to me as you see it in a dream. I was
%% hunting in the Norwich, VT, woods at the time. (I saw a Bear this trip!)
%%endtext

%%sep 1 0 500
%%sep 1 0 500
%%center -- END of Bob's Note Book 3 --

%%newpage

%%sep 1 1 500

